X:0
T:Da mihi Manum
G:harp tune
C:Rory Dall (Scotland, 17th century)
N:not the Irish harper of the same name 100 years
N:previously, despite what you read in some books
S:Dan Wright, Aria di Camera c.1726
N:arrangement for the transverse flute
M:6/4
L:1/4
Q:1/4=120
K:EMin
D|EGG    G2E   |EGG     G2E   |EGG     GAB   |Bed          B2A/G/|
  AAe    BBd   |A>BA/G/ E2D   |EGG     g2D   |EGG          g2D   |
  EGG    gab   |d>ba/b/ g2D   |EGG     GAB   |Bed          B2A   |
  AAe    BBd   |ABd     e2d/B/|dde     g2e/d/|eeg          a2g/e/|
  ggd/e/ ggd/e/|gga     b3    |bbb     b2a/g/|a/g/a/b/a/b/ a2g   |
  eeg/e/ dde/d/|BBd/B/  A2G   |GGB/d/ =f2e/d/|eeg          e2d/B/|\
  ddg    BBd   |A>BA/G/ E2D  |]

Breathnach points out that this high F natural is common in Irish
music, where it's generally reached by a slide from below.  Whistle
players often play that tune with one of those Irish-style slides;
obviously Rory Dall's harp can't have done that, and it seems to be
a folk-revival idea of very recent times.


7. Leading Notes and Alternate Rising/Falling Modes
== ================================================

In some traditions like Arabic music, modes are more complicated in always
having two alternate forms used when the melody is rising or falling.  In
Scottish music it sometimes happens like this:

